X: 38055
T: Spinning Jenny
R: three-two
M: 3/2
K: Gminor
|:B2G4 A2 B2d2|c2f4 ed c2BA|B2G4 A2 B2B2|d2g4 f2 d4:|
|:g3a g2f2 d2cB|f3g f2 ed c4|g3a g2f2 d2c2|g3a g2f2 d4:|
|:G2B2 A2c2 B2d2|c2f4 ed c2BA|G2B2 A2c2 B2d2|d2g4 f2 d4:|
|:GABG ABcA BcdB|c2f4 ed cdec|GABA ABcA BcdB|d2g2 g2fe d4:|
|:g2B2 d2B2 g2B2|c2f4 ed c2BA|g2B2 d2B2 g2B2|d2g4 fe d4:|
|:gfga g2fe d2cB|f=efg fgfd cdcA|gfga gagf edcB|gfga g2fe dcBA:|
|:G2B2 A2c2 B2g2|F2f4 ed c2BA|G2B2 A2g2 B2g2|G2g4 f2 dcBA:|
|:B2G2 D2g2 B2d2|c2f4 ed c2BA|B2G2 D2g2 BcdB|d2g4 f2 d4:|
|:b3a gagf d2cB|A2f4 ed c2BA|b3a gagf d2cB|d2g4 f2 d4:|
|:bagf gfed edcB|A2f4 d2 c2BA|bagf gfed edcB|d2g4 f2 d4:|
|:gdBc dBgd BcdB|c2f4 ed c2Bc|dBcd ecde fd=ef|B2g4 f2 d4:|

